X:125
T: ES BLUEHEN DREI BLUEMCHEN
N: E1191
O: Europa, Mitteleuropa, Deutschland, Hessen, Taunus
R: Ansinge -, Brauchtums - Lied, Kirchen - Fest, Silvester, Namenstag
M: 2/4
L: 1/16
K: F
C2 | F2G2A2B2 | c2d2c2z2 |
f2e2d2c2 | d2c2z2
c2 | f2c2dcBA | B2d2c2z2 |
B4c2A2 | G2F2z2
c2 | f2c2dcBA | B2d2c2z2 |
B4c2A2 | G2F2z2

@@@ Tune index: 4809
